icon-themes/sifr_svg/cmd/sc_emojicontrol.svg

<svg viewBox="0 0 16 16" xmlns="http://www.w3.org/2000/svg"><path d="m8 1a7 7 0 0 0 -7 7 7 7 0 0 0 7 7 7 7 0 0 0 7-7 7 7 0 0 0 -7-7zm-2.5 3a1.5 2 0 0 1 1.5 2 1.5 2 0 0 1 -1.5 2 1.5 2 0 0 1 -1.5-2 1.5 2 0 0 1 1.5-2zm5 0a1.5 2 0 0 1 1.5 2 1.5 2 0 0 1 -1.5 2 1.5 2 0 0 1 -1.5-2 1.5 2 0 0 1 1.5-2zm-7.5 5h2v.5a3 1.5 0 0 0 3 1.5 3 1.5 0 0 0 3-1.5v-.5h1.94.06v.5a5 3.5 0 0 1 -5 3.5 5 3.5 0 0 1 -5-3.5z" fill="#555753"/></svg>

<svg xmlns="http://www.w3.org/2000/svg" viewBox="0 0 16 16">
  <path
     style="fill:#555753"
     d="M 8 1 A 7 7 0 0 0 1 8 A 7 7 0 0 0 8 15 A 7 7 0 0 0 15 8 A 7 7 0 0 0 8 1 z M 5.5 4 A 1.5 2 0 0 1 7 6 A 1.5 2 0 0 1 5.5 8 A 1.5 2 0 0 1 4 6 A 1.5 2 0 0 1 5.5 4 z M 10.5 4 A 1.5 2 0 0 1 12 6 A 1.5 2 0 0 1 10.5 8 A 1.5 2 0 0 1 9 6 A 1.5 2 0 0 1 10.5 4 z M 3 9 L 3 9 L 5 9 L 5 9.5 A 3 1.5 0 0 0 8 11 A 3 1.5 0 0 0 11 9.5 L 11 9 L 12.94 9 L 13 9 L 13 9.5 A 5 3.5 0 0 1 8 13 A 5 3.5 0 0 1 3 9.5 L 3 9 z "
     />
</svg>
